img/team/3-3.svg

<svg fill="none" height="110" viewBox="0 0 110 110" width="110" xmlns="http://www.w3.org/2000/svg" xmlns:xlink="http://www.w3.org/1999/xlink"><filter id="a" color-interpolation-filters="sRGB" filterUnits="userSpaceOnUse" height="110" width="110" x="0" y="-.000977"><feFlood flood-opacity="0" result="BackgroundImageFix"/><feColorMatrix in="SourceAlpha" type="matrix" values="0 0 0 0 0 0 0 0 0 0 0 0 0 0 0 0 0 0 127 0"/><feOffset dy="5"/><feGaussianBlur stdDeviation="10"/><feColorMatrix type="matrix" values="0 0 0 0 0.890196 0 0 0 0 0.721569 0 0 0 0 0.45098 0 0 0 0.5 0"/><feBlend in2="BackgroundImageFix" mode="normal" result="effect1_dropShadow"/><feBlend in="SourceGraphic" in2="effect1_dropShadow" mode="normal" result="shape"/></filter><g filter="url(#a)"><path d="m20 14.999h70v70h-70z" fill="#e3b873"/></g><g fill="#fff"><path d="m77 42.1814c0-1.9255-1.5663-3.4919-3.4919-3.4919h-4.3385v-2.2028c0-.3558-.2883-.6445-.6445-.6445h-1.4912v-3.6265c0-.3559-.2883-.6446-.6445-.6446h-5.0502v-.7791c0-.3558-.2887-.6445-.6445-.6445h-11.3897c-.3559 0-.6446.2887-.6446.6445v.7791h-5.0501c-.3562 0-.6446.2887-.6446.6446v3.6265h-1.4911c-.3559 0-.6446.2887-.6446.6445v2.2028h-4.3381c-1.9256 0-3.4919 1.5664-3.4919 3.4919v8.5424c0 .3562.2887.6445.6445.6445h.7788v15.0163c0 1.9255 1.5667 3.4918 3.4919 3.4918h34.1692c1.9256 0 3.4919-1.5663 3.4919-3.4918v-15.0163h.7792c.1708 0 .335-.0678.4558-.1886.1209-.1209.1887-.2847.1887-.4559zm-9.1194-5.0502v1.5583h-2.982v-1.5583zm-17.9311-5.6947h10.1007v1.5583h-10.1007zm-7.8304 5.6947h2.9823v1.5583h-2.9823zm32.1682 29.2534c0 1.2148-.9883 2.2028-2.2029 2.2028h-34.1692c-1.2145 0-2.2028-.988-2.2028-2.2028v-15.0163h4.4056v1.5583h-.7791c-.3558 0-.6445.2887-.6445.6445v2.8474c0 .3558.2887.6445.6445.6445h.7791v2.2028c0 .2444.138.4673.3565.5764l2.8474 1.424c.0906.0457.1893.0682.2884.0682.0987 0 .1973-.0225.288-.0682l2.8473-1.424c.2182-.1091.3565-.332.3565-.5764v-2.2028h.7789c.3561 0 .6445-.2887.6445-.6445v-2.8474c0-.3558-.2884-.6445-.6445-.6445h-.7789v-1.5583h4.4057v2.9148c0 .3559.2887.6446.6445.6446h5.6951c.3558 0 .6445-.2887.6445-.6446v-2.9148h4.4056v1.5583h-.7791c-.3562 0-.6446.2887-.6446.6445v2.8474c0 .3558.2884.6445.6446.6445h.7791v2.2028c0 .2441.1377.4673.3562.5764l2.8473 1.424c.0907.0457.1897.0682.2884.0682s.1974-.0225.2884-.0682l2.8473-1.424c.2182-.1091.3562-.332.3562-.5764v-2.2028h.7791c.3562 0 .6446-.2887.6446-.6445v-2.8474c0-.3558-.2884-.6445-.6446-.6445h-.7791v-1.5583h4.406zm-32.8799-15.6591c0-.0004 0-.001 0-.0017 0-.0004 0-.001 0-.0017v-2.2011h4.4057v4.4056h-4.4057zm-1.4236-3.4936v-1.5586h7.253v1.5586zm7.253 6.9838v1.5583h-7.253v-1.5583zm-1.4237 2.8473v1.8047l-2.2028 1.1018-2.2029-1.1018v-1.8047zm8.5424-5.6947v.7792c0 .3561.2883.6445.6445.6445.3558 0 .6445-.2884.6445-.6445v-.7792h1.5583v2.2703h-4.406v-2.2703zm-1.5587-1.289v-.8463h4.406v.8463zm11.3898.6462c0-.0004 0-.001 0-.0017 0-.0004 0-.001 0-.0017v-2.2011h4.4056v4.4056h-4.4056zm-1.4237-3.4936v-1.5586h7.253v1.5586zm7.253 6.9838v1.5583h-7.253v-1.5583zm-1.4237 2.8473v1.8047l-2.2028 1.1018-2.2028-1.1018v-1.8047zm6.3423-6.9837c-.001 0-.0017 0-.0027 0-.0007 0-.0017 0-.0024 0h-5.0481v-1.5583h.7791c.3562 0 .6446-.2887.6446-.6446v-2.2028h.0674c.3562 0 .6446-.2887.6446-.6445 0-.3562-.2884-.6445-.6446-.6445h-9.9657c-.3562 0-.6445.2883-.6445.6445 0 .3558.2883.6445.6445.6445h.0671v2.2028c0 .3559.2887.6446.6446.6446h.7791v1.5583h-4.4056v-1.4909c0-.3561-.2887-.6445-.6445-.6445h-5.6951c-.3558 0-.6445.2884-.6445.6445v1.4909h-4.4057v-1.5583h.7792c.3558 0 .6445-.2887.6445-.6446v-2.2028h.0675c.3558 0 .6445-.2887.6445-.6445 0-.3562-.2887-.6445-.6445-.6445h-9.9661c-.3558 0-.6445.2883-.6445.6445 0 .3558.2887.6445.6445.6445h.0675v2.2028c0 .3559.2884.6446.6445.6446h.7792v1.5583h-5.8293v-7.8979c0-1.2145.9882-2.2028 2.2028-2.2028h12.1014c.3558 0 .6445-.2887.6445-.6446 0-.3558-.2887-.6445-.6445-.6445h-2.2028v-2.2028c0-.3558-.2887-.6445-.6446-.6445h-1.4911v-2.982h4.4056v.7791c0 .3562.2887.6446.6446.6446h11.3897c.3558 0 .6445-.2884.6445-.6446v-.7791h4.406v2.982h-1.4911c-.3562 0-.6446.2887-.6446.6445v2.2028h-12.4341c-.3558 0-.6445.2887-.6445.6445 0 .3559.2887.6446.6445.6446h22.3327c1.2146 0 2.2028.9883 2.2028 2.2028v7.8979z"/><path d="m37.271 66.3843c0 .3561.2884.6445.6446.6445h34.1688c.3559 0 .6446-.2884.6446-.6445 0-.3559-.2887-.6446-.6446-.6446h-34.1688c-.3562 0-.6446.2887-.6446.6446z"/></g></svg>

<svg width="110" height="110" viewBox="0 0 110 110" fill="none" xmlns="http://www.w3.org/2000/svg">
<g filter="url(#filter0_d)">
<rect x="20" y="14.999" width="70" height="70" fill="#E3B873"/>
</g>
<path d="M77 42.1814C77 40.2559 75.4337 38.6895 73.5081 38.6895H69.1696V36.4867C69.1696 36.1309 68.8813 35.8422 68.5251 35.8422H67.0339V32.2157C67.0339 31.8598 66.7456 31.5711 66.3894 31.5711H61.3392V30.792C61.3392 30.4362 61.0505 30.1475 60.6947 30.1475H49.305C48.9491 30.1475 48.6604 30.4362 48.6604 30.792V31.5711H43.6103C43.2541 31.5711 42.9657 31.8598 42.9657 32.2157V35.8422H41.4746C41.1187 35.8422 40.83 36.1309 40.83 36.4867V38.6895H36.4919C34.5663 38.6895 33 40.2559 33 42.1814V50.7238C33 51.08 33.2887 51.3683 33.6445 51.3683H34.4233V66.3846C34.4233 68.3101 35.99 69.8764 37.9152 69.8764H72.0844C74.01 69.8764 75.5763 68.3101 75.5763 66.3846V51.3683H76.3555C76.5263 51.3683 76.6905 51.3005 76.8113 51.1797C76.9322 51.0588 77 50.895 77 50.7238V42.1814ZM67.8806 37.1312V38.6895H64.8986V37.1312H67.8806ZM49.9495 31.4365H60.0502V32.9948H49.9495V31.4365ZM42.1191 37.1312H45.1014V38.6895H42.1191V37.1312ZM74.2873 66.3846C74.2873 67.5994 73.299 68.5874 72.0844 68.5874H37.9152C36.7007 68.5874 35.7124 67.5994 35.7124 66.3846V51.3683H40.118V52.9266H39.3389C38.9831 52.9266 38.6944 53.2153 38.6944 53.5711V56.4185C38.6944 56.7743 38.9831 57.063 39.3389 57.063H40.118V59.2658C40.118 59.5102 40.256 59.7331 40.4745 59.8422L43.3219 61.2662C43.4125 61.3119 43.5112 61.3344 43.6103 61.3344C43.709 61.3344 43.8076 61.3119 43.8983 61.2662L46.7456 59.8422C46.9638 59.7331 47.1021 59.5102 47.1021 59.2658V57.063H47.881C48.2371 57.063 48.5255 56.7743 48.5255 56.4185V53.5711C48.5255 53.2153 48.2371 52.9266 47.881 52.9266H47.1021V51.3683H51.5078V54.2831C51.5078 54.639 51.7965 54.9277 52.1523 54.9277H57.8474C58.2032 54.9277 58.4919 54.639 58.4919 54.2831V51.3683H62.8975V52.9266H62.1184C61.7622 52.9266 61.4738 53.2153 61.4738 53.5711V56.4185C61.4738 56.7743 61.7622 57.063 62.1184 57.063H62.8975V59.2658C62.8975 59.5099 63.0352 59.7331 63.2537 59.8422L66.101 61.2662C66.1917 61.3119 66.2907 61.3344 66.3894 61.3344C66.4881 61.3344 66.5868 61.3119 66.6778 61.2662L69.5251 59.8422C69.7433 59.7331 69.8813 59.5102 69.8813 59.2658V57.063H70.6604C71.0166 57.063 71.305 56.7743 71.305 56.4185V53.5711C71.305 53.2153 71.0166 52.9266 70.6604 52.9266H69.8813V51.3683H74.2873V66.3846ZM41.4074 50.7255C41.4074 50.7251 41.4074 50.7245 41.4074 50.7238C41.4074 50.7234 41.4074 50.7228 41.4074 50.7221V48.521H45.8131V52.9266H41.4074V50.7255ZM39.9838 47.2319V45.6733H47.2368V47.2319H39.9838ZM47.2368 54.2157V55.774H39.9838V54.2157H47.2368ZM45.8131 57.063V58.8677L43.6103 59.9695L41.4074 58.8677V57.063H45.8131ZM54.3555 51.3683V52.1475C54.3555 52.5036 54.6438 52.792 55 52.792C55.3558 52.792 55.6445 52.5036 55.6445 52.1475V51.3683H57.2028V53.6386H52.7968V51.3683H54.3555ZM52.7968 50.0793V49.233H57.2028V50.0793H52.7968ZM64.1866 50.7255C64.1866 50.7251 64.1866 50.7245 64.1866 50.7238C64.1866 50.7234 64.1866 50.7228 64.1866 50.7221V48.521H68.5922V52.9266H64.1866V50.7255ZM62.7629 47.2319V45.6733H70.0159V47.2319H62.7629ZM70.0159 54.2157V55.774H62.7629V54.2157H70.0159ZM68.5922 57.063V58.8677L66.3894 59.9695L64.1866 58.8677V57.063H68.5922ZM74.9345 50.0793C74.9335 50.0793 74.9328 50.0793 74.9318 50.0793C74.9311 50.0793 74.9301 50.0793 74.9294 50.0793H69.8813V48.521H70.6604C71.0166 48.521 71.305 48.2323 71.305 47.8764V45.6736H71.3724C71.7286 45.6736 72.017 45.3849 72.017 45.0291C72.017 44.6729 71.7286 44.3846 71.3724 44.3846H61.4067C61.0505 44.3846 60.7622 44.6729 60.7622 45.0291C60.7622 45.3849 61.0505 45.6736 61.4067 45.6736H61.4738V47.8764C61.4738 48.2323 61.7625 48.521 62.1184 48.521H62.8975V50.0793H58.4919V48.5884C58.4919 48.2323 58.2032 47.9439 57.8474 47.9439H52.1523C51.7965 47.9439 51.5078 48.2323 51.5078 48.5884V50.0793H47.1021V48.521H47.8813C48.2371 48.521 48.5258 48.2323 48.5258 47.8764V45.6736H48.5933C48.9491 45.6736 49.2378 45.3849 49.2378 45.0291C49.2378 44.6729 48.9491 44.3846 48.5933 44.3846H38.6272C38.2714 44.3846 37.9827 44.6729 37.9827 45.0291C37.9827 45.3849 38.2714 45.6736 38.6272 45.6736H38.6947V47.8764C38.6947 48.2323 38.9831 48.521 39.3392 48.521H40.1184V50.0793H34.2891V42.1814C34.2891 40.9669 35.2773 39.9786 36.4919 39.9786H48.5933C48.9491 39.9786 49.2378 39.6899 49.2378 39.334C49.2378 38.9782 48.9491 38.6895 48.5933 38.6895H46.3905V36.4867C46.3905 36.1309 46.1018 35.8422 45.7459 35.8422H44.2548V32.8602H48.6604V33.6393C48.6604 33.9955 48.9491 34.2839 49.305 34.2839H60.6947C61.0505 34.2839 61.3392 33.9955 61.3392 33.6393V32.8602H65.7452V35.8422H64.2541C63.8979 35.8422 63.6095 36.1309 63.6095 36.4867V38.6895H51.1754C50.8196 38.6895 50.5309 38.9782 50.5309 39.334C50.5309 39.6899 50.8196 39.9786 51.1754 39.9786H73.5081C74.7227 39.9786 75.7109 40.9669 75.7109 42.1814V50.0793H74.9345Z" fill="white"/>
<path d="M37.271 66.3843C37.271 66.7404 37.5594 67.0288 37.9156 67.0288H72.0844C72.4403 67.0288 72.729 66.7404 72.729 66.3843C72.729 66.0284 72.4403 65.7397 72.0844 65.7397H37.9156C37.5594 65.7397 37.271 66.0284 37.271 66.3843Z" fill="white"/>
<defs>
<filter id="filter0_d" x="0" y="-0.000976562" width="110" height="110" filterUnits="userSpaceOnUse" color-interpolation-filters="sRGB">
<feFlood flood-opacity="0" result="BackgroundImageFix"/>
<feColorMatrix in="SourceAlpha" type="matrix" values="0 0 0 0 0 0 0 0 0 0 0 0 0 0 0 0 0 0 127 0"/>
<feOffset dy="5"/>
<feGaussianBlur stdDeviation="10"/>
<feColorMatrix type="matrix" values="0 0 0 0 0.890196 0 0 0 0 0.721569 0 0 0 0 0.45098 0 0 0 0.5 0"/>
<feBlend mode="normal" in2="BackgroundImageFix" result="effect1_dropShadow"/>
<feBlend mode="normal" in="SourceGraphic" in2="effect1_dropShadow" result="shape"/>
</filter>
</defs>
</svg>
